X:1
T:General Henry Munroe
M:3/4
L:1/4
K:G
 E3/4- =F/4| G e e3/4- =f/4| e d B3/4 G/4| A G G| G2 e3/4- =f/4| g ^fe/2-f/2|\
 e d e3/4 d/4| B G A| B2e/2-=f/2| g ^fe/2-f/2| e d e3/4- d/4| B G A|\
 B2 A/2A/2| G ee/2-=f/2| e d B3/4- G/4| A G G| G2||
